img/header/search-icon.svg

<svg width="23" height="22" viewBox="0 0 23 22" fill="none" xmlns="http://www.w3.org/2000/svg">
<rect width="6.8678" height="1.71695" transform="matrix(-0.718931 0.695081 0.718931 0.695081 4.9375 15.6534)" fill="white"/>
<path fill-rule="evenodd" clip-rule="evenodd" d="M12.0967 18C7.53016 18 3.99668 14.3229 3.99668 10C3.99668 5.67715 7.53016 2 12.0967 2C16.6632 2 20.1967 5.67715 20.1967 10C20.1967 14.3229 16.6632 18 12.0967 18ZM12.0967 20C6.57383 20 2.09668 15.5228 2.09668 10C2.09668 4.47715 6.57383 0 12.0967 0C17.6195 0 22.0967 4.47715 22.0967 10C22.0967 15.5228 17.6195 20 12.0967 20Z" fill="white"/>
</svg>

<svg width="23" height="22" fill="none" xmlns="http://www.w3.org/2000/svg"><path fill="#fff" d="M4.938 15.653 0 20.427l1.234 1.194 4.938-4.774z"/><path fill-rule="evenodd" clip-rule="evenodd" d="M12.097 18c-4.567 0-8.1-3.677-8.1-8s3.533-8 8.1-8c4.566 0 8.1 3.677 8.1 8s-3.534 8-8.1 8Zm0 2c-5.523 0-10-4.477-10-10s4.477-10 10-10c5.522 0 10 4.477 10 10s-4.478 10-10 10Z" fill="#fff"/></svg>
